src/images/saveNewProfileInfo.svg

<svg width="25" height="25" viewBox="0 0 25 25" fill="none" xmlns="http://www.w3.org/2000/svg">
<mask id="mask0_40607_302" style="mask-type:alpha" maskUnits="userSpaceOnUse" x="0" y="0" width="25" height="25">
<rect x="0.362305" y="0.692047" width="24" height="24" fill="#3456F3"/>
</mask>
<g mask="url(#mask0_40607_302)">
<path d="M21.3623 7.69202V19.692C21.3623 20.242 21.1665 20.7129 20.7748 21.1045C20.3831 21.4962 19.9123 21.692 19.3623 21.692H5.3623C4.8123 21.692 4.34147 21.4962 3.9498 21.1045C3.55814 20.7129 3.3623 20.242 3.3623 19.692V5.69202C3.3623 5.14202 3.55814 4.67118 3.9498 4.27952C4.34147 3.88785 4.8123 3.69202 5.3623 3.69202H17.3623L21.3623 7.69202ZM19.3623 8.54202L16.5123 5.69202H5.3623V19.692H19.3623V8.54202ZM12.3623 18.692C13.1956 18.692 13.904 18.4003 14.4873 17.817C15.0706 17.2337 15.3623 16.5253 15.3623 15.692C15.3623 14.8587 15.0706 14.1503 14.4873 13.567C13.904 12.9837 13.1956 12.692 12.3623 12.692C11.529 12.692 10.8206 12.9837 10.2373 13.567C9.65397 14.1503 9.3623 14.8587 9.3623 15.692C9.3623 16.5253 9.65397 17.2337 10.2373 17.817C10.8206 18.4003 11.529 18.692 12.3623 18.692ZM6.3623 10.692H15.3623V6.69202H6.3623V10.692Z" fill="#3456F3"/>
</g>
</svg>

<svg width="25" height="25" fill="none" xmlns="http://www.w3.org/2000/svg"><mask id="a" style="mask-type:alpha" maskUnits="userSpaceOnUse" x="0" y="0" width="25" height="25"><path fill="#3456F3" d="M.362.692h24v24h-24z"/></mask><g mask="url(#a)"><path d="M21.362 7.692v12c0 .55-.195 1.02-.587 1.413a1.926 1.926 0 0 1-1.413.587h-14c-.55 0-1.02-.196-1.412-.587a1.926 1.926 0 0 1-.588-1.413v-14c0-.55.196-1.02.588-1.412a1.926 1.926 0 0 1 1.412-.588h12l4 4zm-2 .85-2.85-2.85H5.362v14h14V8.542zm-7 10.15c.834 0 1.542-.292 2.125-.875a2.893 2.893 0 0 0 .875-2.125c0-.833-.291-1.542-.875-2.125a2.893 2.893 0 0 0-2.125-.875c-.833 0-1.541.292-2.125.875a2.893 2.893 0 0 0-.875 2.125c0 .833.292 1.542.875 2.125a2.893 2.893 0 0 0 2.125.875zm-6-8h9v-4h-9v4z" fill="#3456F3"/></g></svg>
